tools/download-figma-icons/icons/outlined-medium/time.svg

<svg width="25" height="25" viewBox="0 0 25 25" fill="none" xmlns="http://www.w3.org/2000/svg">
<path fill-rule="evenodd" clip-rule="evenodd" d="M12.5882 1.56145C13.0191 1.56145 13.3688 1.21175 13.3688 0.780866C13.3688 0.349201 13.0191 0.000279053 12.5882 0.000279053C12.1573 0.000279053 11.8076 0.349201 11.8076 0.780866C11.8076 1.21175 12.1573 1.56145 12.5882 1.56145ZM22.289 6.00574C22.6637 5.79342 23.1406 5.92144 23.3545 6.29534C24.4309 8.17499 25 10.32 25 12.4987C25 19.3912 19.393 24.999 12.5004 24.999C5.60783 24.999 9.30178e-05 19.3912 9.30178e-05 12.4987C9.30178e-05 12.0678 0.349796 11.7181 0.78068 11.7181C1.21156 11.7181 1.56127 12.0678 1.56127 12.4987C1.56127 18.531 6.46882 23.4378 12.5004 23.4378C18.532 23.4378 23.4388 18.531 23.4388 12.4987C23.4388 10.5925 22.9415 8.71594 22.0002 7.07124C21.7855 6.69734 21.9151 6.21962 22.289 6.00574ZM13.6817 12.5026C13.6817 11.8571 13.1564 11.3317 12.5109 11.3317C11.8653 11.3317 11.34 11.8571 11.34 12.5026C11.34 13.1482 11.8653 13.6735 12.5109 13.6735C13.1564 13.6735 13.6817 13.1482 13.6817 12.5026ZM9.9326 13.3675L6.2412 13.3699C5.81032 13.3699 5.46062 13.0209 5.46062 12.59C5.45984 12.1592 5.80954 11.8087 6.24042 11.8087L9.87952 11.8063C10.1894 10.6386 11.2463 9.77057 12.5109 9.77057C13.2204 9.77057 13.8613 10.0485 14.3476 10.4942L19.0459 7.68328C19.4152 7.46472 19.8952 7.58336 20.1161 7.95258C20.337 8.32336 20.2168 8.80186 19.8468 9.02355L15.15 11.8337C15.2047 12.0483 15.2429 12.27 15.2429 12.5026C15.2429 14.0092 14.0174 15.2347 12.5109 15.2347C11.3088 15.2347 10.2971 14.4486 9.9326 13.3675ZM19.1674 2.75312C18.952 3.12546 18.4742 3.25347 18.1011 3.03803C17.7272 2.82337 17.6 2.34487 17.8154 1.97253C18.0309 1.59863 18.5078 1.47061 18.8817 1.68683C19.2556 1.90228 19.3828 2.37921 19.1674 2.75312ZM7.07534 3.03803C7.44846 2.82337 7.57648 2.34487 7.36103 1.97253C7.14559 1.59863 6.66787 1.47061 6.29475 1.68683C5.92085 1.90228 5.79361 2.37921 6.00906 2.75312C6.2245 3.12546 6.70144 3.25347 7.07534 3.03803ZM3.03962 7.07452C2.82418 7.44686 2.34646 7.57487 1.97334 7.35943C1.59944 7.14477 1.4722 6.66627 1.68764 6.29393C1.90308 5.92003 2.38002 5.79201 2.75392 6.00823C3.12704 6.22289 3.25506 6.70061 3.03962 7.07452Z" fill="black"/>
</svg>

<svg xmlns="http://www.w3.org/2000/svg" width="25" height="25" fill="none" viewBox="0 0 25 25"><path fill="currentColor" fill-rule="evenodd" d="M12.588 1.561a.78.78 0 1 0 0-1.561.78.78 0 0 0 0 1.561m9.701 4.445a.783.783 0 0 1 1.066.29A12.5 12.5 0 0 1 25 12.498c0 6.892-5.607 12.5-12.5 12.5S0 19.391 0 12.499a.78.78 0 0 1 1.561 0c0 6.032 4.908 10.939 10.94 10.939s10.938-4.907 10.938-10.94A10.94 10.94 0 0 0 22 7.072a.78.78 0 0 1 .289-1.065m-8.607 6.497a1.172 1.172 0 1 0-1.172 1.171c.646 0 1.172-.526 1.172-1.171m-3.75.864-3.69.003a.78.78 0 0 1-.002-1.561l3.64-.003a2.73 2.73 0 0 1 2.63-2.035c.71 0 1.351.277 1.838.723l4.698-2.81a.781.781 0 0 1 .8 1.34l-4.696 2.81c.055.214.093.436.093.669a2.735 2.735 0 0 1-2.732 2.732 2.73 2.73 0 0 1-2.578-1.867m9.235-10.614a.781.781 0 1 1-1.351-.784.781.781 0 0 1 1.351.784M7.076 3.04a.78.78 0 1 0-.78-1.351.78.78 0 0 0 .78 1.351M3.04 7.075a.781.781 0 1 1-1.352-.784.781.781 0 0 1 1.352.784" clip-rule="evenodd"/></svg>
